X:1
Q:1/4=96
L:1/8
M:1/4
K:C clef=F4
V:1
%%MIDI program 0
F15/8|[^A,D]15/8|[CF]15/8|[^A,D^A]15/8|
[^A,E^A]15/8|[A,-F-A-]2|[A,FA]7/8z/8[^A,CG]15/16|[A,CF]15/8|
L:1/8
M:1/4
K:C clef=F4
V:2
%%MIDI program 0
F,15/8|[^A,,F,]15/8|[A,,F,]15/8|[G,,G,]15/8|
[G,,C,G,]15/8|[F,,-C,-F,-]2|[F,,C,F,]7/8[F,,-C,-]/8[E,-F,,C,]3/4[E,]3/16|[F,,C,F,]15/8|
Q:1/4=480
Q:1/4=96
L:1/8
M:1/4
K:C clef=G2
V:1
%%MIDI program 0
F15/8|[^DF^d]15/8|[D^Ad]15/8|[CGc]15/8|
[CG^A]15/8|[^D-G-d-]2|[^DGd]7/8z/8[Fc]15/16|[Fc]15/8|
L:1/8
M:1/4
K:C clef=F4
V:2
%%MIDI program 0
F,15/8|[A,,F,C]15/8|[^A,,F,^A,]15/8|[^D,,^D,]15/8|
[E,,E,]15/8|[F,,-C,-G,-]2|[F,,C,G,]7/8[F,,-C,-]/8[A,-F,,C,]3/4[A,]3/16|[A,F,]15/8|
Q:1/4=480
Q:1/4=96
L:1/8
M:1/4
K:C clef=G2
V:1
%%MIDI program 0
[D^A]15/8|[DA]15/8|[^DG]15/8|[F-C]31/32[FD]31/32|
[^A,^DG]31/32[A,^DA]31/32|[D-^A-]2|[D-^A-]2|[D-^A-]3/2[D^A]3/16z3/8|
F15/8|[A,-^D-F-A-]2|[A,^DFA]31/32[^A,F^A]31/32|[CFc]15/8|
F15/8|[D-^A-d-]2|[D^Ad]31/32[^DFc]31/32|[DF^A]15/8|
[^A,^A]15/8|[A,-D-A-]2|[A,DA]31/32[CDA]15/16|[^A,D^A]31/16|
[G,^DG]15/8|[^DFG,]31/16|[A,-^DF]31/32[A,-^D]15/16|[^A,D]15/8|
F15/8|[A,-F-A-]2|[A,FA]31/32[^A,G^A]31/32|[CFAc]15/8|
F15/8|[D^Ad]15/8|[DAc]15/8|[DG^A]15/8|
[A,DA]15/8|[G,-^D-G-]2|[G,^DG]31/32[CGc]15/16|[^A,F^A]15/8|
[A,^DFA]15/8|[^A,-D-^A-]2|[^A,-D-^A-]2|[^A,-D-^A-]3/2[^A,D^A]3/16z3/8|
[Ff]15/8|[A-^d-f-a-]2|[A^dfa]31/32[^Ad^a]31/32|[cfc']15/8|
[Ff]15/8|[d-f-d'-]2|[dfd']31/32[^dfc']31/32|[^Ad^a]15/8|
[^A^a]15/8|[A-c-a-]2|[Aca]31/32[Ada]15/16|[^Ad^a]31/16|
[G^dg]15/8|[^dfG^A]31/16|[^dfFc]31/32[^d^DA]31/32|[D^Ad]15/8|
[Ff]15/8|[A-^d-f-a-]2|[A^dfa]7/8z/8[^Adg^a]15/16|[cfac']15/8|
[Ff]15/8|[dad']15/8|[cac']15/8|[^Ag^a]15/8|
[Ada]15/8|[G-^d-g-]2|[G^dg]7/8z/8[cgc']15/16|[^Af^a]15/8|
[Afa]15/8|[^A-f-^a-]2|[^A-f-^a-]2|[^A-f-^a-]3/2[^Af^a]3/16
L:1/8
M:1/4
K:C clef=F4
V:2
%%MIDI program 0
[G,,G,]15/8|[D,F,]15/8|[^D,^A,]15/8|[F,-^A,]31/32[F,A,]31/32|
[F,,-C,-G,]31/32[F,,C,F,]31/32|[^A,,-F,-^A,-]2|[^A,,-F,-^A,-]2|[^A,,-F,-^A,-]3/2[^A,,F,^A,]3/16z3/8|
F,15/8|[C,-F,-]2|[F,,-C,F,]31/32[F,,-D,F,]31/32|[F,,^D,A,]15/8|
F,15/8|[^A,,-F,-^A,-]2|[^A,,F,^A,]31/32[^A,,-F,A,]31/32|[^A,,F,^A,]15/8|
z2|[D,,-A,,-^F,-]2|[D,,A,,^F,]31/32[D,^F,]15/16|[G,,D,G,]31/16|
[^D,,^D,]15/8|[F,,C,]31/16|F,31/16|[^A,,F,]15/8|
F,15/8|[F,,-C,-F,-]2|[F,,C,F,]31/32[F,,-E,]31/32|[F,,^D,]15/8|
F,15/8|[^A,,F,]15/8|[A,,D,^F,]15/8|[G,,D,G,]15/8|
[D,,A,,F,]15/8|[^D,,^D,]31/16|[C,,C,]31/32[^D,G,]15/16|[F,,D,F,]15/8|
[F,,C,F,]15/8|[^A,,-F,-]2|[^A,,-F,-]2|[^A,,-F,-]3/2[^A,,F,]3/16z3/8|
F,15/8|[C,-F,-^D-]2|[C,F,^D]31/32[^A,,F,D]31/32|[A,,F,C]15/8|
F,15/8|[^A,,F,D]31/16|F,,31/32[F,A,]31/32|[^A,,F,^A,]15/8|
z2|[A,,^F,D]31/16|D,31/32[^F,C]15/16|[G,,D,^A,]31/16|
[^D,,^D,]15/8|[F,,C,G,]31/16|[F,,-C,-A,]31/32[F,,C,F,]31/32|[^A,,F,]15/8|
F,15/8|[F,-C-F-]2|[F,CF]7/8z/8[E,E]15/16|[^D,^D]15/8|
F,15/8|[D,^F,C]15/8|[^F,,D,A,]15/8|[G,,D,^A,]15/8|
[D,F,]15/8|[^D,^A,]15/8|C,15/16[G,^D]15/16|[D,-^A,-F,,][F,,-D,^A,]7/8[F,,-]/8|
[F,C^DF,,]7/4|[^A,,-F,-D-]2|[^A,,-F,-D-]2|[^A,,-F,-D-]3/2[^A,,F,D]3/16


